X: 1
T: John Carty's
M: 4/4
L: 1/8
R: reel
K: Gmaj
cABA ~G3B|AE~E2 GEDB|cABA ~g3e|1d2Ac BG~G2:|2d2Ac BGGE||
D3E G{A}G{F}G2|BG(3Bcd edBe|dBde ~g3e|d2Ac BGGE|
D{G}D{F}DE ~G3A|AG(3Bcd edBe|dBde ~g3e|d2Ac BGG2|
